X:1
T:Brightest and Best
T:Brightest and Best
T:#46 Epiphany, Second Tune
T:James P. Harding, 1892
T:Five Verse
C:James P. Harding, 1892
Z:Five Verse
%%score 1 2 3 4
L:1/8
M:4/4
K:Eb
V:1 treble transpose=-2 nm="B♭ Trumpet" snm="B♭ Tpt."
V:2 treble transpose=-2 nm="B♭ Trumpet" snm="B♭ Tpt."
V:3 bass nm="Trombone" snm="Trom."
V:4 bass nm="Tuba" snm="Tba."
V:1
[K:F] c4 A2 G2 | F4 F2 F2 | B4 A2 G2 | c4 c4 | f4 e2 c2 | d4 c2 A2 | c2 B2 A2 B2 | A4 G4 || %8
 c4 A2 G2 | F4 F2 F2 | B4 A2 G2 | c4 c4 | f4 e2 c2 | d4 c2 A2 | B2 A2 G2 A2 | F8 |] %16
V:2
[K:F] F4 E2 E2 | F2 E2 D2 F2 | G4 F2 E2 | F2 B2 A2 G2 | F4 A2 A2 | F2 G2 A2 F2 | G4 F2 G2 | %7
 F4 E4 || F4 E2 E2 | F2 E2 D2 F2 | G4 F2 E2 | F2 E2 F2 G2 | F4 A2 A2 | F2 G2 A2 F2 | F4 F2 E2 | %15
 F8 |] %16
V:3
!ff! G,4 B,2 A,2 | G,4 A,2 B,2 | C4 B,2 B,2 | B,4 B,4 | C4 B,2 D2 | C2 D2 E2 E2 | B,4 B,2 C2 | %7
 B,8 || G,4 B,2 A,2 | G,4 A,2 B,2 | C4 B,2 B,2 | B,2 A,2 G,2 B,2 | C4 B,2 D2 | C2 D2 E2 E2 | %14
 C2 B,2 C2 B,2 | G,8 |] %16
V:4
!ff! E,4 B,,2 B,,2 | C,2 B,,2 A,,2 G,,2 | F,,2 A,,2 B,,2 A,2 | G,2 F,2 E,2 D,2 | C,4 G,2 G,2 | %5
 A,4 G,2 C,2 | D,2 C,2 E,2 A,,2 | B,,8 || E,4 B,,2 =B,,2 | C,2 B,,2 A,,2 G,,2 | %10
 F,,2 A,,2 B,,2 A,2 | G,2 F,2 E,2 D,2 | C,4 G,2 G,2 | A,4 G,2 C,2 | F,,2 G,,2 A,,2 B,,2 | E,8 |] %16

